X:1
T: Chief O'Neill's Favourite
Z: Jeremy
S: https://thesession.org/tunes/13#setting13
R: hornpipe
M: 4/4
L: 1/8
K: Dmaj
|:de|fefg afge|fdec dBAG|FEDE FGAB|=cAd^c A2 de|
fefg afge|fdec dBAG|FEDF GBAG|F2 D2 D2:|
|:DE|=F2FE FGAB|=cAdB =cAGB|Adde fded|=cAd^c A2de|
fefg afge|fdec dBAG|FEDF GBAG|F2 D2 D2:|

